X:1
T:Partons, la mer est belle
C:Chant  ramer traditionnel, collect  l'le d'Yeu. Fichier ABC par Bernard Loffet
L:1/8
Q:320
M:6/8
K:G
 z4zD |: [G2G,,2G,2]G [G2G,,2G,2]D | [G3E,,3E,3] [E,,2E,2]G | [A2A,,2A,2]A [A2A,,2A,2]G | \
 [F3D,,3D,3] [F2D,,2D,2]B | [G2G,,2G,2]D [D2G,,2G,2]E | [E3C,,3C,3] [E2C,,2C,2]A | \
 [F2D,,2D,2]F [FD,,D,]ED | [G3G,,3G,3] [G,,2G,2]D :| [D3G,,3G,3] [B,G,,G,]DG | [B3E,,3E,3] [G2E,,2E,2]D | \
 [D2D,,2D,2]A [A2D,,2D,2]C | [B,3G,,3G,3] [G,,2G,2]B | [B2E,,2E,2]B [BE,,E,]AB | [cC,,C,]AB [c2C,,2C,2]A | \
 [A2D,,2D,2]A [A2D,,2D,2]B | [G3G,,3G,3] [G,,2G,2]D | [DD,,D,]FE [DD,,D,]FE | [D3D,,3D,3] [D2D,,2D,2]D | \
 [E2C,,2C,2]F [GC,,C,]FE | [D3D,,3D,3] [D,,2D,2]B | [B2E,,2E,2]B [BE,,E,]AB | [cC,,C,]AB [c2C,,2C,2]A | \
 [F2D,,2D,2]F [FD,,D,]ED | [GG,,G,]BA [G2G,,2G,2]z | \
W:Created with TablEdit http://www.tabledit.com/ by Bernard Loffet
